X:527
T:no name
R:reel
Z:id:hn-reel-527
M:C|
K:D
d2cA BE~E2|EFDE FABc|dBcA BE~E2|1 Bded cABc:|2 B2ed cdec||
|:d2fd Adfe|d2fd cdec|1 d2fd Adfd|B2AF FE~E2:|2 d2fd cdec|dBAF E2FA||
